src/WeatherTwentyOne/Resources/Images/sunrise_icon.svg

<svg width="21" height="21" viewBox="0 0 21 21" fill="none" xmlns="http://www.w3.org/2000/svg">
<path d="M10.4958 17.8021C10.6848 17.8022 10.8673 17.8707 11.0096 17.995C11.1519 18.1193 11.2443 18.2909 11.2698 18.4782L11.2771 18.5844V20.1469C11.2767 20.3448 11.2014 20.5351 11.0662 20.6796C10.9309 20.824 10.746 20.9117 10.5486 20.9251C10.3511 20.9384 10.156 20.8764 10.0026 20.7515C9.84916 20.6266 9.74883 20.4481 9.72186 20.2521L9.71457 20.1469V18.5844C9.71457 18.3772 9.79688 18.1785 9.94339 18.032C10.0899 17.8855 10.2886 17.8032 10.4958 17.8032V17.8021ZM16.7687 15.6438L17.8729 16.7479C17.9476 16.82 18.0071 16.9062 18.0481 17.0014C18.0891 17.0967 18.1107 17.1993 18.1116 17.303C18.1126 17.4067 18.0929 17.5096 18.0536 17.6056C18.0144 17.7017 17.9564 17.7889 17.8831 17.8623C17.8098 17.9357 17.7226 17.9937 17.6266 18.0331C17.5306 18.0724 17.4277 18.0922 17.324 18.0914C17.2203 18.0905 17.1177 18.069 17.0224 18.0281C16.9271 17.9872 16.8408 17.9277 16.7687 17.8532L15.6646 16.749C15.5222 16.6017 15.4433 16.4044 15.445 16.1996C15.4467 15.9947 15.5288 15.7987 15.6736 15.6538C15.8183 15.5089 16.0143 15.4266 16.2191 15.4248C16.4239 15.4229 16.6213 15.5015 16.7687 15.6438ZM5.32811 15.6438C5.47441 15.7903 5.55659 15.9888 5.55659 16.1959C5.55659 16.4029 5.47441 16.6015 5.32811 16.7479L4.2229 17.8542C4.0748 17.9922 3.87892 18.0673 3.67653 18.0637C3.47413 18.0602 3.28102 17.9782 3.13788 17.835C2.99474 17.6919 2.91275 17.4988 2.90918 17.2964C2.90561 17.094 2.98074 16.8981 3.11874 16.75L4.2229 15.6448C4.36939 15.4985 4.56795 15.4163 4.77499 15.4163C4.98202 15.4163 5.18058 15.4985 5.32707 15.6448L5.32811 15.6438ZM10.5 4.74482C12.0264 4.74482 13.4902 5.35117 14.5695 6.43048C15.6488 7.50979 16.2552 8.97365 16.2552 10.5C16.2552 12.0264 15.6488 13.4903 14.5695 14.5696C13.4902 15.6489 12.0264 16.2552 10.5 16.2552C8.97361 16.2552 7.50975 15.6489 6.43044 14.5696C5.35113 13.4903 4.74478 12.0264 4.74478 10.5C4.74478 8.97365 5.35113 7.50979 6.43044 6.43048C7.50975 5.35117 8.97361 4.74482 10.5 4.74482ZM10.5 6.30732C9.94939 6.30732 9.40419 6.41576 8.89551 6.62647C8.38682 6.83717 7.92462 7.146 7.53529 7.53533C7.14596 7.92466 6.83713 8.38686 6.62643 8.89555C6.41572 9.40423 6.30728 9.94943 6.30728 10.5C6.30728 11.0506 6.41572 11.5958 6.62643 12.1045C6.83713 12.6132 7.14596 13.0754 7.53529 13.4647C7.92462 13.854 8.38682 14.1629 8.89551 14.3736C9.40419 14.5843 9.94939 14.6927 10.5 14.6927C11.612 14.6927 12.6784 14.251 13.4647 13.4647C14.251 12.6784 14.6927 11.612 14.6927 10.5C14.6927 9.38805 14.251 8.32162 13.4647 7.53533C12.6784 6.74905 11.612 6.30732 10.5 6.30732ZM20.1354 9.73752C20.3333 9.73759 20.5239 9.81278 20.6685 9.94791C20.8132 10.083 20.9011 10.268 20.9146 10.4655C20.9281 10.663 20.8661 10.8582 20.7412 11.0118C20.6163 11.1653 20.4377 11.2658 20.2417 11.2927L20.1354 11.3H18.5729C18.375 11.3 18.1844 11.2248 18.0398 11.0896C17.8952 10.9545 17.8072 10.7695 17.7937 10.572C17.7802 10.3745 17.8422 10.1793 17.9671 10.0258C18.092 9.87221 18.2706 9.7718 18.4667 9.74482L18.5729 9.73752H20.1354ZM2.42707 9.70732C2.62642 9.70529 2.819 9.77955 2.96538 9.91489C3.11177 10.0502 3.20087 10.2364 3.21445 10.4353C3.22803 10.6342 3.16506 10.8308 3.03843 10.9848C2.9118 11.1387 2.7311 11.2385 2.53332 11.2636L2.42707 11.2698H0.864569C0.666628 11.2698 0.476089 11.1946 0.331453 11.0594C0.186816 10.9243 0.0988669 10.7393 0.0853752 10.5418C0.0718836 10.3443 0.133856 10.1491 0.258769 9.99555C0.383683 9.842 0.562225 9.74159 0.758319 9.71461L0.864569 9.70732H2.42707ZM4.1354 3.0719L4.2229 3.1469L5.32707 4.25107C5.46721 4.39029 5.54941 4.57744 5.55712 4.77483C5.56482 4.97223 5.49746 5.16522 5.3686 5.31494C5.23973 5.46467 5.05893 5.56002 4.86259 5.5818C4.66625 5.60357 4.46895 5.55016 4.3104 5.43232L4.2229 5.35627L3.11874 4.25211C2.97859 4.11288 2.89639 3.92574 2.88869 3.72834C2.88098 3.53095 2.94834 3.33796 3.07721 3.18823C3.20607 3.03851 3.38687 2.94316 3.58321 2.92138C3.77956 2.8996 3.97686 2.95301 4.1354 3.07086V3.0719ZM17.8729 3.1469C18.0055 3.27924 18.0861 3.45481 18.1001 3.64162C18.114 3.82843 18.0604 4.01403 17.9489 4.16461L17.8729 4.25211L16.7687 5.35627C16.6292 5.49477 16.4425 5.57554 16.246 5.58246C16.0495 5.58938 15.8576 5.52194 15.7086 5.39361C15.5596 5.26527 15.4645 5.08548 15.4422 4.89011C15.42 4.69474 15.4722 4.49816 15.5885 4.33961L15.6635 4.25211L16.7677 3.1469C16.8402 3.0743 16.9264 3.01671 17.0212 2.97742C17.116 2.93812 17.2177 2.9179 17.3203 2.9179C17.4229 2.9179 17.5246 2.93812 17.6194 2.97742C17.7142 3.01671 17.8004 3.0743 17.8729 3.1469ZM10.5 0.0729411C10.6888 0.0729491 10.8712 0.141319 11.0135 0.265407C11.1557 0.389495 11.2483 0.560906 11.2739 0.747941L11.2812 0.854191V2.41669C11.2809 2.61454 11.2055 2.8049 11.0703 2.94934C10.9351 3.09378 10.7501 3.18153 10.5527 3.19489C10.3553 3.20824 10.1602 3.1462 10.0068 3.02129C9.85332 2.89638 9.75299 2.71791 9.72603 2.5219L9.71874 2.41565V0.85315C9.71874 0.645949 9.80105 0.447235 9.94756 0.300722C10.0941 0.154209 10.2928 0.0718994 10.5 0.0718994V0.0729411Z" fill="#FF7A00"/>
</svg>

<svg width="21" height="21" fill="none" xmlns="http://www.w3.org/2000/svg">
    <path
        d="M10.496 17.802a.782.782 0 01.774.676l.007.106v1.563a.782.782 0 01-1.555.105l-.007-.105v-1.563a.781.781 0 01.78-.78v-.002zm6.273-2.158l1.104 1.104a.782.782 0 11-1.104 1.105l-1.104-1.104a.781.781 0 011.104-1.105zm-11.44 0a.781.781 0 010 1.104l-1.106 1.106a.781.781 0 01-1.104-1.104l1.104-1.105a.781.781 0 011.104 0l.001-.001zm5.171-10.9a5.755 5.755 0 110 11.51 5.755 5.755 0 010-11.51zm0 1.563a4.193 4.193 0 100 8.385 4.193 4.193 0 000-8.385zm9.635 3.43a.781.781 0 01.107 1.556l-.107.007h-1.562a.78.78 0 01-.106-1.555l.106-.007h1.562zm-17.708-.03a.781.781 0 01.106 1.557l-.106.006H.865a.78.78 0 01-.107-1.555l.107-.008h1.562zm1.708-6.635l.088.075L5.327 4.25A.781.781 0 014.31 5.432l-.087-.076-1.104-1.104a.781.781 0 011.016-1.181zm13.738.075a.781.781 0 01.076 1.018l-.076.087-1.104 1.104a.78.78 0 01-1.18-1.016l.075-.088 1.104-1.105a.78.78 0 011.105 0zM10.5.073a.781.781 0 01.774.675l.007.106v1.563a.781.781 0 01-1.555.105l-.007-.106V.853A.781.781 0 0110.5.072z"
        fill="#FF7A00" />
</svg>
